X: 26768
T: Mill Stream, The
R: reel
M: 4/4
K: Dmajor
A2 FD EFGB|ADFD G2FG|A2 FD EFGB|AFGE D3B|
A2 FD EFGB|AD D2 G2FG|AD D2 BDD2|AFGE DEFG||
A3B cAAG|Addc dfed|cA A2 BG G2|AFGE DEFG|
AD D2 ADBD|AD D2 EFGB|ADD2 BDD2|AFGE D3B||

